src/assets/filled/Routing2.svg

<svg width="24" height="24" viewBox="0 0 24 24"  xmlns="http://www.w3.org/2000/svg">
<path d="M11.9987 19.75H9.31872C8.15872 19.75 7.14872 19.05 6.74872 17.97C6.33872 16.89 6.63872 15.7 7.50872 14.93L15.4987 7.94C15.9787 7.52 15.9887 6.95 15.8487 6.56C15.6987 6.17 15.3187 5.75 14.6787 5.75H11.9987C11.5887 5.75 11.2487 5.41 11.2487 5C11.2487 4.59 11.5887 4.25 11.9987 4.25H14.6787C15.8387 4.25 16.8487 4.95 17.2487 6.03C17.6587 7.11 17.3587 8.3 16.4887 9.07L8.49872 16.06C8.01872 16.48 8.00872 17.05 8.14872 17.44C8.29872 17.83 8.67872 18.25 9.31872 18.25H11.9987C12.4087 18.25 12.7487 18.59 12.7487 19C12.7487 19.41 12.4087 19.75 11.9987 19.75Z" />
<path d="M19.9988 15H16.9988C15.8988 15 14.9988 15.9 14.9988 17V20C14.9988 21.1 15.8988 22 16.9988 22H19.9988C21.0988 22 21.9988 21.1 21.9988 20V17C21.9988 15.9 21.0988 15 19.9988 15ZM18.5088 19.5C17.9588 19.5 17.5088 19.05 17.5088 18.5C17.5088 17.95 17.9488 17.5 18.5088 17.5H18.5188C19.0688 17.5 19.5188 17.95 19.5188 18.5C19.5188 19.05 19.0688 19.5 18.5088 19.5Z" />
<path d="M5.46875 2C3.53875 2 1.96875 3.57 1.96875 5.5C1.96875 7.43 3.53875 9 5.46875 9C7.39875 9 8.96875 7.43 8.96875 5.5C8.96875 3.57 7.40875 2 5.46875 2ZM5.50875 6.5C4.95875 6.5 4.50875 6.05 4.50875 5.5C4.50875 4.95 4.94875 4.5 5.50875 4.5H5.51875C6.06875 4.5 6.51875 4.95 6.51875 5.5C6.51875 6.05 6.06875 6.5 5.50875 6.5Z" />
</svg>

<?xml version="1.0" encoding="UTF-8"?>
<svg width="24" height="24" viewBox="0 0 24 24" xmlns="http://www.w3.org/2000/svg">
 <path d="m11.999 19.75h-2.68c-1.16 0-2.17-0.7-2.57-1.78-0.41-1.08-0.11-2.27 0.76-3.04l7.99-6.99c0.48-0.42 0.49-0.99 0.35-1.38-0.15-0.39-0.53-0.81-1.17-0.81h-2.68c-0.41 0-0.75-0.34-0.75-0.75s0.34-0.75 0.75-0.75h2.68c1.16 0 2.17 0.7 2.57 1.78 0.41 1.08 0.11 2.27-0.76 3.04l-7.99 6.99c-0.48 0.42-0.49 0.99-0.35 1.38 0.15 0.39 0.53 0.81 1.17 0.81h2.68c0.41 0 0.75 0.34 0.75 0.75s-0.34 0.75-0.75 0.75z"/>
 <path d="m19.999 15h-3c-1.1 0-2 0.9-2 2v3c0 1.1 0.9 2 2 2h3c1.1 0 2-0.9 2-2v-3c0-1.1-0.9-2-2-2zm-1.49 4.5c-0.55 0-1-0.45-1-1s0.44-1 1-1h0.01c0.55 0 1 0.45 1 1s-0.45 1-1.01 1z"/>
 <path d="m5.4688 2c-1.93 0-3.5 1.57-3.5 3.5s1.57 3.5 3.5 3.5 3.5-1.57 3.5-3.5-1.56-3.5-3.5-3.5zm0.04 4.5c-0.55 0-1-0.45-1-1s0.44-1 1-1h0.01c0.55 0 1 0.45 1 1s-0.45 1-1.01 1z"/>
</svg>
